icons/splunk.svg

<?xml version="1.0" encoding="UTF-8"?>
<svg width="512px" height="153px" viewBox="0 0 512 153" version="1.1" xmlns="http://www.w3.org/2000/svg" xmlns:xlink="http://www.w3.org/1999/xlink" preserveAspectRatio="xMidYMid">
    <g>
        <path d="M54.6024929,92.0814419 C54.6024929,95.4683077 53.8861786,98.6161204 52.45355,101.524458 C51.0209214,104.393516 48.9910827,106.863871 46.4438589,108.85612 C43.8569338,110.888071 40.7926629,112.441915 37.2506661,113.557778 C33.7086693,114.673218 29.8085154,115.231149 25.5899479,115.231149 C20.5356664,115.231149 15.9987277,114.553691 12.0189598,113.159497 C8.03919192,111.804582 4.01957062,109.493454 0,106.30594 L6.64626471,95.5080091 C9.83006212,98.1777158 12.6954882,100.130264 15.2823289,101.36523 C17.8293837,102.600619 20.4560525,103.198251 23.1622929,103.198251 C26.4655324,103.198251 29.0921589,102.361143 31.1218709,100.648071 C33.1515407,98.9345762 34.1066968,96.6635727 34.1066968,93.754813 C34.1066968,92.5198466 33.9076831,91.3642829 33.5495259,90.2885444 C33.1913265,89.2123836 32.5147559,88.0969437 31.559642,86.9413801 C30.6044859,85.8259402 29.2513868,84.5508501 27.540046,83.2360586 C25.8685756,81.9208447 23.679678,80.2474737 20.9734375,78.294926 C18.9437677,76.860608 16.9140134,75.3464648 14.9639576,73.8323217 C13.0138595,72.2784772 11.2627752,70.6448076 9.63109062,68.8916115 C8.03919192,67.1384153 6.76562227,65.18629 5.77068031,62.9946892 C4.81552419,60.8432122 4.2981814,58.3327333 4.2981814,55.5836238 C4.2981814,52.3961097 4.97475207,49.4472262 6.28806533,46.8176432 C7.60137859,44.1880602 9.43207688,41.9565892 11.7403321,40.0838665 C14.0485873,38.2111861 16.7946559,36.7767414 20.0580672,35.7407888 C23.2816927,34.7048361 26.7839037,34.186902 30.6044859,34.186902 C34.6240396,34.186902 38.4844077,34.7048784 42.225376,35.7806591 C45.9661753,36.8564821 49.4286426,38.4104111 52.6524793,40.4823164 L46.6427882,50.204509 C42.5438317,47.3354506 38.2058222,45.8614312 33.6688835,45.8614312 C30.9228149,45.8614312 28.6146019,46.5785902 26.8236895,48.0129082 C25.0327771,49.4472262 24.1174068,51.2405461 24.1174068,53.4317245 C24.1174068,55.5037987 24.9133773,57.3765213 26.505276,59.010191 C28.0971747,60.683562 30.8432855,62.9549878 34.7434394,65.9828517 C38.6834214,68.8519101 41.9468327,71.4020903 44.4938453,73.5535673 C47.0807705,75.7050443 49.1106092,77.7771186 50.6226405,79.6895426 C52.1350942,81.6023889 53.1301629,83.514813 53.7269507,85.5070621 C54.3237385,87.5390126 54.6024929,89.6904896 54.6024929,92.0814419 Z M122.855503,73.8724455 C122.855503,76.860608 122.537048,80.0882458 121.900558,83.5545143 C121.303348,87.0212052 120.228877,90.2087193 118.716846,93.1571804 C117.204392,96.1056416 115.254378,98.5362953 112.826681,100.409018 C110.398984,102.321442 107.294674,103.277654 103.593576,103.277654 C97.3849552,103.277654 92.4898594,100.807299 88.9082879,95.8268872 C85.3262941,90.8861769 83.5355084,84.0727441 83.5355084,75.42629 C83.5355084,66.5407828 85.3262941,59.5279984 88.9876907,54.3085337 C92.6093859,49.0886467 97.5441831,46.4987651 103.752803,46.4987651 C109.642968,46.4987651 114.299011,48.9691202 117.721777,53.8304277 C121.144543,58.7314366 122.855503,65.425343 122.855503,73.8724455 Z M144.426024,73.1151627 C144.426024,67.337767 143.590184,62.0781786 141.958626,57.3765213 C140.286944,52.6351627 137.978773,48.5708393 134.914165,45.1442722 C131.849978,41.7175362 128.267984,39.0877842 124.089203,37.1752335 C119.910421,35.2626828 115.29408,34.3063863 110.239756,34.3063863 C104.668047,34.3063863 99.7729511,35.3822093 95.5544681,37.4541568 C91.3359852,39.5659324 87.3958342,42.8728464 83.8138404,47.4152757 L83.6947362,36.1392386 L63.8355983,36.1392386 L63.8355983,152.047845 L83.6550349,152.047845 L83.6550349,103.078725 C85.6050485,105.349728 87.475237,107.262152 89.3061464,108.816419 C91.0969322,110.370264 92.9278416,111.645354 94.7984525,112.601566 C96.668641,113.557778 98.6186546,114.274937 100.688195,114.67364 C102.757735,115.071921 104.986503,115.271272 107.334375,115.271272 C112.587628,115.271272 117.522848,114.195112 122.059786,112.12346 C126.596725,110.011684 130.536454,107.063223 133.839693,103.237953 C137.142933,99.4126822 139.729858,94.950078 141.600469,89.8898412 C143.510781,84.7899031 144.426024,79.1717352 144.426024,73.1151627 Z M153.261271,113.39855 L173.637372,113.39855 L173.637372,0 L153.261271,0 L153.261271,113.39855 Z M260.555945,113.438251 L260.555945,36.0595824 L240.179422,36.0595824 L240.179422,77.6972935 C240.179422,81.4030373 240.020194,84.2716733 239.701738,86.3040462 C239.383282,88.3359967 238.865897,90.1288942 238.149583,91.8026876 C235.284326,98.1777158 229.990949,101.404931 222.309999,101.404931 C216.30073,101.404931 212.121948,99.2534543 209.733953,94.9103766 C208.779008,93.2767069 208.142096,91.4039843 207.783939,89.3319101 C207.425782,87.2602582 207.226853,84.2716733 207.226853,80.3272988 L207.226853,36.0595824 L186.85033,36.0595824 L186.85033,80.0084207 C186.85033,82.9965832 186.890031,85.5467635 186.930155,87.5791363 C186.969856,89.6110868 187.129084,91.4838094 187.328013,93.0773553 C187.526942,94.6713236 187.765573,96.1056416 188.044327,97.3410303 C188.282958,98.5759967 188.681239,99.7712617 189.198624,100.887124 C191.068813,105.628483 194.053596,109.2147 198.232378,111.645354 C202.411159,114.075585 207.545308,115.271272 213.594701,115.271272 C219.046883,115.271272 223.862154,114.314638 228.001234,112.402214 C232.140314,110.48979 236.159868,107.381679 240.059895,103.038601 L240.099597,113.39855 L260.555945,113.438251 Z M348.349637,113.39855 L348.349637,69.5293677 C348.349637,66.5407828 348.309936,63.9906026 348.269812,61.878827 C348.230111,59.7670514 348.111007,57.9344525 347.871954,56.380608 C347.673025,54.8263411 347.394693,53.4718482 347.115938,52.3162846 C346.797482,51.1210196 346.439325,49.965456 346.041467,48.8495937 C344.170856,44.2277616 341.186072,40.6417132 337.007291,38.1314877 C332.828509,35.6212623 327.69436,34.3462144 321.605689,34.3462144 C316.153084,34.3462144 311.337813,35.3025109 307.198733,37.2150616 C303.059653,39.1276123 299.040099,42.2752139 295.140072,46.5785902 L295.10037,36.218937 L274.604321,36.218937 L274.604321,113.438251 L295.140072,113.438251 L295.140072,71.7606698 C295.140072,68.1744525 295.259598,65.3455178 295.53793,63.3532687 C295.776561,61.3610196 296.294368,59.488297 297.010683,57.6953995 C298.323785,54.5872881 300.393325,52.2765832 303.139478,50.682615 C305.885631,49.0886467 309.148747,48.292085 312.969371,48.292085 C318.979062,48.292085 323.157844,50.443562 325.545417,54.7866397 C326.461083,56.4203093 327.097572,58.293032 327.455729,60.3249825 C327.813887,62.3573553 328.012816,65.3852192 328.012816,69.2903147 L328.012816,113.358426 L348.349637,113.39855 Z M432.639472,108.298189 L401.598905,69.6885956 L427.824624,41.5581816 L412.384165,34.904061 L385.082707,66.5804842 L382.933764,66.5804842 L382.933764,0 L362.398014,0 L362.398014,113.39855 L382.933764,113.39855 L382.933764,72.3181786 L413.657566,114.952394 L432.639472,108.298189 Z M512,80.5663518 L512,67.9353995 L450.272799,36.9361383 L450.272799,50.8418429 L498.10874,74.1511998 L450.272799,97.7790126 L450.272799,111.366177 L512,80.5663518 Z" fill="#0C1724" fill-rule="nonzero"></path>
    </g>
</svg>

<svg xmlns="http://www.w3.org/2000/svg" viewBox="0 0 512 152.048">
  <path fill="#0c1724" d="M54.602 92.081c0 3.387-.716 6.535-2.148 9.443a21.394 21.394 0 0 1-6.01 7.332c-2.587 2.032-5.651 3.586-9.193 4.702-3.542 1.115-7.442 1.673-11.661 1.673-5.054 0-9.591-.677-13.571-2.071-3.98-1.355-8-3.667-12.019-6.854l6.646-10.798c3.184 2.67 6.05 4.622 8.636 5.857 2.547 1.236 5.174 1.833 7.88 1.833 3.304 0 5.93-.837 7.96-2.55 2.03-1.713 2.985-3.984 2.985-6.893 0-1.235-.2-2.39-.557-3.466-.359-1.077-1.035-2.192-1.99-3.348-.956-1.115-2.309-2.39-4.02-3.705a196.983 196.983 0 0 0-6.567-4.941 167.442 167.442 0 0 1-6.009-4.463 48.642 48.642 0 0 1-5.333-4.94 22.528 22.528 0 0 1-3.86-5.897c-.955-2.152-1.473-4.662-1.473-7.411 0-3.188.677-6.137 1.99-8.766 1.313-2.63 3.144-4.861 5.452-6.734 2.309-1.873 5.055-3.307 8.318-4.343 3.224-1.036 6.726-1.554 10.546-1.554 4.02 0 7.88.518 11.621 1.594 3.741 1.075 7.204 2.63 10.427 4.701l-6.01 9.723c-4.098-2.87-8.436-4.344-12.973-4.344-2.746 0-5.054.718-6.845 2.152-1.791 1.434-2.707 3.228-2.707 5.419 0 2.072.796 3.945 2.388 5.578 1.592 1.674 4.338 3.945 8.238 6.973 3.94 2.869 7.204 5.42 9.75 7.57 2.588 2.152 4.618 4.224 6.13 6.137 1.512 1.912 2.507 3.825 3.104 5.817.597 2.032.875 4.183.875 6.574zm68.254-18.209c0 2.989-.319 6.216-.955 9.683-.598 3.466-1.672 6.654-3.184 9.602-1.513 2.949-3.463 5.38-5.89 7.252-2.428 1.912-5.532 2.869-9.233 2.869-6.209 0-11.104-2.47-14.686-7.451-3.582-4.94-5.372-11.754-5.372-20.4 0-8.886 1.79-15.899 5.452-21.118 3.621-5.22 8.556-7.81 14.765-7.81 5.89 0 10.546 2.47 13.969 7.331 3.423 4.901 5.134 11.595 5.134 20.042zm21.57-.757c0-5.777-.836-11.037-2.467-15.738-1.672-4.742-3.98-8.806-7.045-12.233-3.064-3.426-6.646-6.056-10.825-7.969-4.179-1.912-8.795-2.869-13.85-2.869-5.571 0-10.466 1.076-14.685 3.148-4.218 2.112-8.158 5.419-11.74 9.961l-.12-11.276H63.837v115.909h19.819v-48.97c1.95 2.272 3.82 4.184 5.651 5.738 1.79 1.554 3.622 2.83 5.492 3.786s3.82 1.673 5.89 2.072c2.07.398 4.298.597 6.646.597 5.254 0 10.189-1.076 14.726-3.148 4.537-2.111 8.476-5.06 11.78-8.885 3.303-3.825 5.89-8.288 7.76-13.348 1.91-5.1 2.826-10.718 2.826-16.775zm8.835 40.284h20.376V0h-20.376zm107.295.04v-77.38h-20.377v41.638c0 3.706-.159 6.575-.477 8.607-.319 2.032-.836 3.825-1.552 5.499-2.866 6.375-8.16 9.602-15.84 9.602-6.01 0-10.188-2.152-12.576-6.495-.955-1.633-1.592-3.506-1.95-5.578-.358-2.072-.557-5.06-.557-9.005V36.06H186.85v43.948c0 2.989.04 5.539.08 7.571s.199 3.905.398 5.498c.199 1.594.438 3.029.716 4.264a15.41 15.41 0 0 0 1.155 3.546c1.87 4.741 4.855 8.328 9.033 10.758 4.18 2.43 9.313 3.626 15.363 3.626 5.452 0 10.267-.956 14.406-2.869 4.14-1.912 8.159-5.02 12.059-9.363l.04 10.36zm87.794-.04v-43.87c0-2.988-.04-5.538-.08-7.65s-.159-3.945-.398-5.498a37.483 37.483 0 0 0-.756-4.065 44.214 44.214 0 0 0-1.074-3.466c-1.871-4.622-4.856-8.208-9.035-10.719-4.178-2.51-9.313-3.785-15.401-3.785-5.453 0-10.268.957-14.407 2.87-4.14 1.912-8.159 5.06-12.059 9.363l-.04-10.36h-20.496v77.22h20.536V71.76c0-3.587.12-6.415.398-8.408.239-1.992.756-3.865 1.473-5.658 1.313-3.108 3.382-5.418 6.129-7.012 2.746-1.594 6.009-2.39 9.83-2.39 6.01 0 10.188 2.15 12.575 6.494.916 1.633 1.553 3.506 1.91 5.538.359 2.032.558 5.06.558 8.965v44.068zm84.29-5.1-31.041-38.61 26.226-28.13-15.44-6.655-27.302 31.676h-2.15V0h-20.535v113.399h20.536v-41.08l30.724 42.633zM512 80.565v-12.63l-61.727-31v13.906l47.836 23.31-47.836 23.627v13.587z"/>
</svg>
